packages/bezier-icons/icons/plus-bold.svg

<svg width="24" height="24" viewBox="0 0 24 24" fill="none" xmlns="http://www.w3.org/2000/svg">
<path d="M3.00001 12C3.00001 12.8284 3.67159 13.5 4.50001 13.5L10.5 13.5L10.5 19.5C10.5 20.3284 11.1716 21 12 21C12.8284 21 13.5 20.3284 13.5 19.5L13.5 13.5L19.5 13.5C20.3284 13.5 21 12.8284 21 12C21 11.1716 20.3284 10.5 19.5 10.5H13.5L13.5 4.5C13.5 3.67157 12.8284 3 12 3C11.1716 3 10.5 3.67157 10.5 4.5L10.5 10.5L4.50001 10.5C3.67159 10.5 3.00001 11.1716 3.00001 12Z" fill="#313234"/>
</svg>

<svg xmlns="http://www.w3.org/2000/svg" width="24" height="24" fill="none" viewBox="0 0 24 24"><path fill="#313234" d="M3 12a1.5 1.5 0 0 0 1.5 1.5h6v6a1.5 1.5 0 0 0 3 0v-6h6a1.5 1.5 0 0 0 0-3h-6v-6a1.5 1.5 0 0 0-3 0v6h-6A1.5 1.5 0 0 0 3 12"/></svg>
